src/icons/rubocop.svg

<svg viewBox="0 0 500 500" xml:space="preserve" xmlns="http://www.w3.org/2000/svg"><g style="fill:#d7252c" color="#000" fill="#f44336"><path d="M350.4 270.7H149.6c-9.5 0-17.2-7.8-17.2-17.2s7.8-17.2 17.2-17.2h200.7c9.5 0 17.2 7.8 17.2 17.2s-7.6 17.2-17.1 17.2" style="-inkscape-stroke:none"/><path d="M149.6 235.8c-9.677 0-17.699 8.023-17.699 17.699 0 9.673 7.925 17.699 17.699 17.699h200.8c9.774 0 17.6-8.03 17.6-17.699 0-9.673-7.926-17.699-17.699-17.699zm0 1h200.7c9.226 0 16.699 7.572 16.699 16.699 0 9.13-7.373 16.699-16.6 16.699h-200.8c-9.226 0-16.699-7.572-16.699-16.699 0-9.123 7.576-16.699 16.699-16.699z" style="-inkscape-stroke:none"/></g><g fill="#b0bec5"><path d="M122.57 179.353c0-.512.656-4.184 1.458-8.161 5.358-26.58 20.208-52.425 40.36-70.24 9.692-8.57 18.02-14.213 29.153-19.758 55.379-27.585 123.52-11.521 160.52 37.843 10.412 13.892 17.718 28.615 21.865 44.064 1.512 5.633 3.235 14.209 3.235 16.1 0 1.057-2.882 1.082-128.29 1.082-118.02 0-128.29-.075-128.29-.93zm-1.02 142.08c-5.372-1.446-9.246-4.14-12.845-8.928-3.348-4.455-4.47-8.928-4.47-17.821v-7.471l-2.893-2.775c-1.648-1.58-3.559-4.194-4.439-6.071l-1.545-3.297v-40.092l1.604-3.266c.924-1.882 2.806-4.346 4.439-5.815l2.835-2.548v-7.52c0-6.085.226-8.19 1.184-11.033 2.929-8.695 10.032-14.657 19.01-15.956 4.72-.683 246.41-.683 251.14 0 8.978 1.299 16.08 7.26 19.01 15.956.958 2.844 1.183 4.948 1.183 11.033v7.52l2.835 2.548c1.634 1.469 3.515 3.933 4.439 5.815l1.604 3.266v20.332c0 23.503.035 23.321-5.657 28.88l-3.115 3.04-.196 8.812c-.19 8.5-.26 8.942-1.986 12.534-2.264 4.707-4.978 7.805-8.884 10.142-6.456 3.861 3.15 3.608-135.06 3.566-106.19-.032-125.62-.161-128.18-.85zm236.25-52.237c6.08-3.249 9.355-8.185 9.758-14.706.454-7.34-3.253-13.693-9.894-16.961l-2.855-1.405-103.64-.15c-115.32-.168-107.04-.447-112.38 3.776-4.031 3.188-6.059 7.243-6.378 12.757-.224 3.87-.07 4.803 1.28 7.754 1.684 3.683 3.594 5.95 6.556 7.784 4.55 2.815-.696 2.694 110.61 2.564l104.52-.12zM176.69 431.653c-7.681-.95-17.793-4.803-24.266-9.245-3.732-2.561-10.061-8.714-13.039-12.675-5.409-7.194-9.318-17.067-10.458-26.408-.37-3.028-.63-15.611-.63-30.498l-.003-25.344h29.782l.012 24.485c.006 13.466.27 26.289.588 28.494 1.22 8.478 6.321 15.477 14.021 19.24l3.993 1.951 11.455.168c10.237.15 11.66.056 13.382-.885 1.2-.656 5.304-5.355 10.882-12.461 4.926-6.274 9.831-11.997 10.901-12.717l1.947-1.31h25.745c22.692 0 25.98.112 27.728.941 1.402.666 4.68 4.37 11.208 12.667 5.073 6.45 10.02 12.211 10.99 12.803 2.577 1.572 20.914 1.598 25.913.037 7.895-2.465 13.868-8.437 16.332-16.332.947-3.036 1.044-5.82 1.044-30.212v-26.868h30.463l-.246 28.494-.245 28.494-1.529 5.723c-6.036 22.596-24.302 38.692-47.057 41.469-6.246.762-142.75.754-148.91-.01z"/><path d="M197.89 358.983c-2.828-2.48-5.224-4.757-5.326-5.061s2.545-3.672 5.88-7.485l6.064-6.932 90.161.044 12.28 14.203-4.422 3.877a3370.72 3370.72 0 0 1-5.618 4.918c-1.182 1.027-1.242.987-4.805-3.269l-3.608-4.31-77.446-.035-8.018 8.559z"/></g></svg>

<svg width="500" height="500" viewBox="0 0 500 500" fill="none" xmlns="http://www.w3.org/2000/svg">
<path d="M122.57 179.353C122.57 178.841 123.226 175.169 124.028 171.192C129.386 144.612 144.236 118.767 164.388 100.952C174.08 92.382 182.408 86.739 193.541 81.194C248.92 53.609 317.061 69.673 354.061 119.037C364.473 132.929 371.779 147.652 375.926 163.101C377.438 168.734 379.161 177.31 379.161 179.201C379.161 180.258 376.279 180.283 250.871 180.283C132.851 180.283 122.581 180.208 122.581 179.353H122.57ZM121.55 321.433C116.178 319.987 112.304 317.293 108.705 312.505C105.357 308.05 104.235 303.577 104.235 294.684V287.213L101.342 284.438C99.694 282.858 97.783 280.244 96.903 278.367L95.358 275.07V234.978L96.962 231.712C97.886 229.83 99.768 227.366 101.401 225.897L104.236 223.349V215.829C104.236 209.744 104.462 207.639 105.42 204.796C108.349 196.101 115.452 190.139 124.43 188.84C129.15 188.157 370.84 188.157 375.57 188.84C384.548 190.139 391.65 196.1 394.58 204.796C395.538 207.64 395.763 209.744 395.763 215.829V223.349L398.598 225.897C400.232 227.366 402.113 229.83 403.037 231.712L404.641 234.978V255.31C404.641 278.813 404.676 278.631 398.984 284.19L395.869 287.23L395.673 296.042C395.483 304.542 395.413 304.984 393.687 308.576C391.423 313.283 388.709 316.381 384.803 318.718C378.347 322.579 387.953 322.326 249.743 322.284C143.553 322.252 124.123 322.123 121.563 321.434L121.55 321.433ZM357.8 269.196C363.88 265.947 367.155 261.011 367.558 254.49C368.012 247.15 364.305 240.797 357.664 237.529L354.809 236.124L251.169 235.974C135.849 235.806 144.129 235.527 138.789 239.75C134.758 242.938 132.73 246.993 132.411 252.507C132.187 256.377 132.341 257.31 133.691 260.261C135.375 263.944 137.285 266.211 140.247 268.045C144.797 270.86 139.551 270.739 250.857 270.609L355.377 270.489L357.8 269.196ZM176.69 431.653C169.009 430.703 158.897 426.85 152.424 422.408C148.692 419.847 142.363 413.694 139.385 409.733C133.976 402.539 130.067 392.666 128.927 383.325C128.557 380.297 128.297 367.714 128.297 352.827L128.294 327.483H158.076L158.088 351.968C158.094 365.434 158.358 378.257 158.676 380.462C159.896 388.94 164.997 395.939 172.697 399.702L176.69 401.653L188.145 401.821C198.382 401.971 199.805 401.877 201.527 400.936C202.727 400.28 206.831 395.581 212.409 388.475C217.335 382.201 222.24 376.478 223.31 375.758L225.257 374.448H251.002C273.694 374.448 276.982 374.56 278.73 375.389C280.132 376.055 283.41 379.759 289.938 388.056C295.011 394.506 299.958 400.267 300.928 400.859C303.505 402.431 321.842 402.457 326.841 400.896C334.736 398.431 340.709 392.459 343.173 384.564C344.12 381.528 344.217 378.744 344.217 354.352V327.484H374.68L374.189 384.472L372.66 390.195C366.624 412.791 348.358 428.887 325.603 431.664C319.357 432.426 182.853 432.418 176.693 431.654L176.69 431.653Z" fill="#B0BEC5"/>
<path d="M197.89 358.983C195.062 356.503 192.666 354.226 192.564 353.922C192.462 353.618 195.109 350.25 198.444 346.437L204.508 339.505L294.669 339.549L306.949 353.752L302.527 357.629C300.656 359.27 298.783 360.91 296.909 362.547C295.727 363.574 295.667 363.534 292.104 359.278L288.496 354.968L211.05 354.933L203.032 363.492L197.89 358.983Z" fill="#B0BEC5"/>
</svg>
